X: 2111
T: The Maid of the Mill
P: The Maid of the Mill
C:Traditional
R:Jig (8x40) ABABB
B:RSCDS 21-11
Z:Anselm Lingnau <anselm@strathspey.org>
M:6/8
L:1/8
K:D
"D"ABA AGF|ABA AGF|"Em"G2E E2F|"A7"G2E E3|
"D"ABA AGF|"Bm"ABc dAG|F2D D2E|"D"F2D D2||
c|"G/B"dBd "A"cAc|"G"BGB "F#m"AGF|"Em"G2E E2F|"A7"G2E E2 c|
  "G/B"dBd "A"cAc|"G"BGB "F#m"ABG|"D"F2D "A7"D2E|"D"F2D D2|]
%%center Book21/2111-Maid_of_the_Mill-AL.abc

%%sep 1 1 500
%%sep 1 1 500

